storage/app/icons/tabler/filled/align-box-right-top.svg

<!--
version: "2.4"
unicode: "f715"
-->
<svg
  xmlns="http://www.w3.org/2000/svg"
  width="24"
  height="24"
  viewBox="0 0 24 24"
  fill="currentColor"
>
  <path d="M18.333 2c1.96 0 3.56 1.537 3.662 3.472l.005 .195v12.666c0 1.96 -1.537 3.56 -3.472 3.662l-.195 .005h-12.666a3.667 3.667 0 0 1 -3.662 -3.472l-.005 -.195v-12.666c0 -1.96 1.537 -3.56 3.472 -3.662l.195 -.005h12.666zm-.333 9h-2l-.117 .007a1 1 0 0 0 .117 1.993h2l.117 -.007a1 1 0 0 0 -.117 -1.993zm0 -3h-6l-.117 .007a1 1 0 0 0 .117 1.993h6l.117 -.007a1 1 0 0 0 -.117 -1.993zm0 -3h-4l-.117 .007a1 1 0 0 0 .117 1.993h4l.117 -.007a1 1 0 0 0 -.117 -1.993z" />
</svg>

<svg xmlns="http://www.w3.org/2000/svg" width="24" height="24" fill="currentColor" viewBox="0 0 24 24"><path d="M18.333 2c1.96 0 3.56 1.537 3.662 3.472l.005.195v12.666c0 1.96-1.537 3.56-3.472 3.662l-.195.005H5.667a3.667 3.667 0 0 1-3.662-3.472L2 18.333V5.667c0-1.96 1.537-3.56 3.472-3.662L5.667 2zM18 11h-2l-.117.007A1 1 0 0 0 16 13h2l.117-.007A1 1 0 0 0 18 11m0-3h-6l-.117.007A1 1 0 0 0 12 10h6l.117-.007A1 1 0 0 0 18 8m0-3h-4l-.117.007A1 1 0 0 0 14 7h4l.117-.007A1 1 0 0 0 18 5"/></svg>
